X:216
T:The Old Bush
R:reel
M:4/4
L:1/8
K:Dmix
A2GA cAA2 | d^cde fded | A2GA cAA2 | dfed cAdc |
A2AG cAA2 | d^cde f3g | afge fde^c |1 dfed cAdc :|2 dfed cAA2 |:
egg2 edcd | efge c3d | egg2 a2ge | dfed cAA2 |
egg2 agg2 | fdec defg | afge fde^c |1 dfed cAA2 :|2 dfed cAdc |]
